X:1
T:Our God ascended up on high
T:John Arnold
T:Text: John Hopkins
T:This edition by Edmund Gooch released into the public domain, April 2015.
T:Our God ascended up on high
T:PSALM XLVII, Verse 5, 6, 7, 8.
C:John Arnold
Z:Text: John Hopkins
%%score [ 1 2 3 4 ]
L:1/8
M:3/2
K:C
V:1 treble nm="SOPRANO" snm="S."
V:2 treble nm="ALTO" snm="A."
V:3 treble-8 transpose=-12 nm="TENOR" snm="T."
V:4 bass nm="BASS" snm="B."
V:1
 c4 | c8 d4 | c8 B4 | (c4 d4) (e2 dc) | B8 B4 | (c3 d e4) e4 | d8 d4 | c8 d4 | (e3 d c4) B4 | %9
w: God|o’er the|hea- then|reigns, _ and _ _|sits Up-|on _ _ his|ho- ly|throne: The|prin- * * ces|
w: Our|God as-|cen- ded|up _ on _ _|high, With|joy _ _ and|plea- sant|noise; The|Lord _ _ goes|
w: Sing|prai- ses|to our|God, _ sing _ _|praise, Sing|prai- * * ses|to our|king; For|God _ _ is|
 c8 B4 | (c3 d e4) (d2 c2) | B8 d4 | e8 c4 | d8 d4 | c8 |] %15
w: of the|peo- * * ple _|have Them|joi- ned|ev- ’ry|one|
w: up a-|bove _ _ the _|sky, With|trum- pet’s|roy- al|voice.|
w: king of|all _ _ the _|earth, All|skil- ful|prai- ses|sing.|
V:2
 C4 | E8 G4 | (G3 F E3 F) G4 | (G4 A4) G4 | G8 G4 | (G3 A G3 F) E4 | A8 G4 | E8 G4 | %8
w: God|o’er the|hea- * * * then|reigns, _ and|sits Up-|on _ _ _ his|ho- ly|throne: The|
w: Our|God as-|cen- * * * ded|up _ on|high, With|joy _ _ _ and|plea- sant|noise; The|
w: Sing|prai- ses|to _ _ _ our|God, _ sing|praise, Sing|prai- * * * ses|to our|king; For|
 (G3 F E4) ^F4 | G8 G4 | E8 A4 | G8 G4 | (G3 F E3 F) G4 | A8 G4 | E8 |] %15
w: prin- * * ces|of the|peo- ple|have Them|joi- * * * ned|ev- ’ry|one|
w: Lord _ _ goes|up a-|bove the|sky, With|trum- * * * pet’s|roy- al|voice.|
w: God _ _ is|king of|all the|earth, All|skil- * * * ful|prai- ses|sing.|
V:3
 G4 | (c3 d c4) B4 | (c3 d e4) d4 | (c4 f4) e4 | d8 d4 | (e3 f e3 d) c4 | d8 B4 | c8 B4 | %8
w: God|o’er _ _ the|hea- * * then|reigns, _ and|sits Up-|on _ _ _ his|ho- ly|throne: The|
w: Our|God _ _ as-|cen- * * ded|up _ on|high, With|joy _ _ _ and|plea- sant|noise; The|
w: Sing|prai- * * ses|to _ _ our|God, _ sing|praise, Sing|prai- * * * ses|to our|king; For|
 (c3 d e4) d4 | (c3 B A4) G4 | (A3 B c4) (f2 e2) | d8 G4 | (c3 d c3 d) e4 | d8 B4 | c8 |] %15
w: prin- * * ces|of _ _ the|peo- * * ple _|have Them|joi- * * * ned|ev- ’ry|one|
w: Lord _ _ goes|up _ _ a-|bove _ _ the _|sky, With|trum- * * * pet’s|roy- al|voice.|
w: God _ _ is|king _ _ of|all _ _ the _|earth, All|skil- * * * ful|prai- ses|sing.|
V:4
 C,4 | C,8 G,,4 | C,8 (G,2 F,2) | (E,4 D,4) C,4 | G,8 G,4 | C,8 E,4 | F,8 G,4 | %7
w: God|o’er the|hea- then _|reigns, _ and|sits Up-|on his|ho- ly|
w: Our|God as-|cen- ded _|up _ on|high, With|joy and|plea- sant|
w: Sing|prai- ses|to our _|God, _ sing|praise, Sing|prai- ses|to our|
"^Notes: Original clefs are treble, alto, tenor and bass. The text of the first verse only is underlaid in the source,with the three subsequent verses given here printed after the music: these have been underlaid editorially." C,8 G,4 | %8
w: throne: The|
w: noise; The|
w: king; For|
 C,8 D,4 | (E,4 F,4) G,4 | C,8 D,4 | G,8 G,4 | C,8 C4 | F,8 G,4 | C,8 |] %15
w: prin- ces|of _ the|peo- ple|have Them|joi- ned|ev- ’ry|one|
w: Lord goes|up _ a-|bove the|sky, With|trum- pet’s|roy- al|voice.|
w: God is|king _ of|all the|earth, All|skil- ful|prai- ses|sing.|

